symbolic/48x48/apps/gnome-sudoku.svg

<svg xmlns="http://www.w3.org/2000/svg" width="48" height="48" version="1">
 <rect style="opacity:0.2" width="39" height="39" x="5" y="5" rx="1.95" ry="1.95"/>
 <rect style="fill:#b2bfd9" width="39" height="39" x="5" y="4" rx="1.95" ry="1.95"/>
 <path style="fill:#3587e9" d="M 17 4 L 17 16 L 5 16 L 5 18 L 17 18 L 17 29 L 5 29 L 5 31 L 17 31 L 17 43 L 19 43 L 19 31 L 30 31 L 30 43 L 32 43 L 32 31 L 44 31 L 44 29 L 32 29 L 32 18 L 44 18 L 44 16 L 32 16 L 32 4 L 30 4 L 30 16 L 19 16 L 19 4 L 17 4 z"/>
 <path style="opacity:0.1" d="M 37.722656,7 C 37.483782,7 37.173895,7.024273 36.875,7.070312 36.576119,7.116302 36.28891,7.183309 36.095703,7.2753901 35.716314,7.4521856 35.379064,7.67186 35.083984,7.929687 l 0.496094,0.6503906 c 0.288056,-0.2357276 0.567795,-0.4201377 0.841797,-0.5527343 0.274002,-0.1325965 0.928418,-0.1992188 1.300781,-0.1992188 0.196719,0 0.375322,0.028849 0.535156,0.085937 0.160154,0.057392 0.302832,0.143632 0.425782,0.2578125 0.245899,0.2209944 0.367187,0.5477994 0.367187,0.982422 0,0.360958 -0.06572,0.689714 -0.199219,0.984375 -0.133487,0.294659 -0.334587,0.594905 -0.601562,0.904297 -0.259952,0.309392 -0.576856,0.662755 -0.949219,1.060547 L 35,14.193359 V 15 h 4.974609 v -0.882812 h -3.804687 v -0.04688 l 1.902344,-1.623046 c 0.386413,-0.390424 0.723663,-0.761645 1.011718,-1.115235 0.288054,-0.353591 0.512237,-0.711308 0.673828,-1.072265 C 39.919401,9.898804 40,9.512132 40,9.099609 40,8.7754842 39.949528,8.4845008 39.847656,8.2285156 39.745783,7.9725323 39.592417,7.7522984 39.388672,7.5644531 39.286438,7.470198 39.175494,7.3889673 39.054688,7.3183594 38.934804,7.2481016 38.806163,7.1875901 38.667969,7.140625 h -0.002 C 38.527336,7.0935761 38.379852,7.0587027 38.222656,7.0351562 38.065534,7.0116756 37.898299,7 37.722656,7 Z M 25.099609,20 c -0.612766,0 -1.362549,0.08969 -1.847656,0.269531 -0.476596,0.179837 -0.877767,0.393441 -1.201172,0.638672 l 0.5625,0.734375 c 0.340426,-0.212534 0.684267,-0.388379 1.033203,-0.527344 0.348937,-0.138964 0.971227,-0.207031 1.464844,-0.207031 0.510639,0 0.915019,0.118412 1.212891,0.355469 0.297872,0.228883 0.447265,0.5554 0.447265,0.980469 10e-7,0.498637 -0.196401,0.898719 -0.58789,1.201171 -0.382979,0.302453 -1.149502,0.552735 -1.898438,0.552735 H 24 v 0.820312 h 0.271484 c 0.808511,0 1.434399,0.123909 1.876954,0.369141 0.451063,0.237057 0.677734,0.628097 0.677734,1.175781 0,0.53951 -0.182871,0.964764 -0.548828,1.275391 -0.357447,0.302452 -0.944698,0.453125 -1.761719,0.453125 -0.408511,0 -0.834791,-0.04839 -1.277344,-0.146485 C 22.795728,27.847223 22.382979,27.703636 22,27.515625 v 1.005859 c 0.374468,0.179837 0.765317,0.301793 1.173828,0.367188 C 23.582339,28.962241 24.025357,29 24.501953,29 25.310464,29 25.96983,28.888677 26.480469,28.667969 26.999618,28.44726 27.382098,28.142371 27.628906,27.75 27.875715,27.357629 28,26.903658 28,26.388672 28,25.80829 27.817129,25.338189 27.451172,24.978516 27.093725,24.618843 26.553482,24.39815 25.830078,24.316406 v -0.04883 c 0.570213,-0.114441 1.225981,-0.344176 1.566406,-0.6875 0.348937,-0.351499 0.523438,-0.8216 0.523438,-1.410156 0,-0.629428 -0.233087,-1.147921 -0.701172,-1.556641 C 26.759176,20.204568 26.0528,20 25.099609,20 Z M 11.425781,34 c -0.489362,0 -0.920267,0.105688 -1.289062,0.316406 C 9.7750168,34.527123 9.4974097,34.828333 9.2988281,35.220703 9.1002465,35.613074 9,36.081994 9,36.626953 c 0,0.74841 0.1985421,1.328015 0.5957031,1.742188 0.4042548,0.406902 0.9334529,0.611328 1.5859379,0.611328 0.46099,0 0.836173,-0.08734 1.126953,-0.261719 0.29078,-0.181653 0.51852,-0.395532 0.68164,-0.642578 h 0.0625 c -0.01418,0.421435 -0.06333,0.825833 -0.148437,1.210937 -0.08511,0.377838 -0.222574,0.711307 -0.414063,1.001953 -0.191489,0.283378 -0.451101,0.508657 -0.777343,0.675782 -0.319148,0.167119 -0.726203,0.249998 -1.222657,0.25 -0.347518,-2e-6 -0.6609039,-0.04812 -0.9374996,-0.142578 v 0.818359 c 0.1134751,0.03633 0.2674943,0.06164 0.4589846,0.07617 0.191491,0.02179 0.356203,0.0332 0.498047,0.0332 0.716312,0 1.303911,-0.130997 1.757812,-0.392578 0.460992,-0.26158 0.814276,-0.610907 1.0625,-1.046875 0.255321,-0.443233 0.427334,-0.933008 0.519531,-1.470703 C 13.948909,38.544883 14,37.993085 14,37.433594 14,36.656118 13.887107,36.016988 13.660156,35.515625 13.433206,35.006996 13.124446,34.62986 12.734375,34.382812 12.344304,34.128496 11.908051,34 11.425781,34 Z m 0,0.806641 c 0.361703,0 0.663162,0.101236 0.904297,0.304687 0.241135,0.203452 0.420449,0.458494 0.541016,0.763672 0.120568,0.305177 0.18164,0.613337 0.18164,0.925781 0,0.232515 -0.06909,0.4578 -0.210937,0.675781 -0.134753,0.217985 -0.325993,0.401551 -0.574219,0.546876 -0.248228,0.138055 -0.54434,0.205081 -0.884766,0.205078 -0.496453,0 -0.866287,-0.140451 -1.107421,-0.423828 -0.234043,-0.290645 -0.3496096,-0.686138 -0.3496098,-1.1875 0,-0.610355 0.1394198,-1.065371 0.4160158,-1.363282 0.283688,-0.29791 0.644268,-0.447265 1.083984,-0.447265 z"/>
 <path style="fill:#3f3f3f" d="m 37.722656,6 c -0.238874,0 -0.548761,0.024273 -0.847656,0.070312 -0.298881,0.04599 -0.58609,0.112997 -0.779297,0.2050781 -0.379389,0.1767955 -0.716639,0.3964699 -1.011719,0.6542969 l 0.496094,0.6503906 c 0.288056,-0.2357276 0.567795,-0.4201376 0.841797,-0.5527343 0.274002,-0.1325964 0.928418,-0.1992188 1.300781,-0.1992188 0.196719,0 0.375322,0.028848 0.535156,0.085937 0.160154,0.057392 0.302832,0.143632 0.425782,0.2578125 0.245899,0.2209944 0.367187,0.5477994 0.367187,0.9824219 0,0.3609577 -0.06572,0.6897145 -0.199219,0.9843751 -0.133487,0.294659 -0.334587,0.594905 -0.601562,0.904297 -0.259952,0.309392 -0.576856,0.662755 -0.949219,1.060547 L 35,13.193359 V 14 h 4.974609 v -0.882812 h -3.804687 v -0.04688 l 1.902344,-1.623046 c 0.386413,-0.390424 0.723663,-0.761645 1.011718,-1.115235 C 39.372038,9.97844 39.596221,9.620723 39.757812,9.259766 39.9194,8.8988047 40,8.5121324 40,8.0996094 40,7.7754842 39.949528,7.4845008 39.847656,7.2285156 39.745783,6.9725323 39.592417,6.7522984 39.388672,6.5644531 39.286438,6.470198 39.175494,6.3889673 39.054688,6.3183594 38.934804,6.2481016 38.806163,6.1875901 38.667969,6.140625 h -0.002 C 38.527336,6.0935761 38.379852,6.0587026 38.222656,6.0351562 38.065534,6.0116756 37.898299,6 37.722656,6 Z M 11.425781,33 c -0.489362,0 -0.920267,0.105688 -1.289062,0.316406 C 9.775017,33.527123 9.4974097,33.828333 9.2988281,34.220703 9.1002465,34.613074 9,35.081994 9,35.626953 c 0,0.74841 0.1985421,1.328015 0.5957031,1.742188 0.4042548,0.406902 0.9334529,0.611328 1.5859379,0.611328 0.46099,0 0.836173,-0.08734 1.126953,-0.261719 0.29078,-0.181653 0.51852,-0.395532 0.68164,-0.642578 h 0.0625 c -0.01418,0.421435 -0.06333,0.825833 -0.148437,1.210937 -0.08511,0.377838 -0.222574,0.711307 -0.414063,1.001953 -0.191489,0.283378 -0.451101,0.508657 -0.777343,0.675782 -0.319148,0.167119 -0.726203,0.249998 -1.222657,0.25 -0.347518,-2e-6 -0.6609039,-0.04812 -0.9374996,-0.142578 v 0.818359 c 0.1134751,0.03633 0.2674945,0.06164 0.4589846,0.07617 0.191491,0.02179 0.356203,0.0332 0.498047,0.0332 0.716312,0 1.303911,-0.130997 1.757812,-0.392578 0.460992,-0.26158 0.814276,-0.610907 1.0625,-1.046875 0.255321,-0.443233 0.427334,-0.933008 0.519531,-1.470703 C 13.948909,37.544883 14,36.993085 14,36.433594 14,35.656118 13.887107,35.016988 13.660156,34.515625 13.433206,34.006996 13.124446,33.62986 12.734375,33.382812 12.344304,33.128496 11.908051,33 11.425781,33 Z m 0,0.806641 c 0.361703,0 0.663162,0.101236 0.904297,0.304687 0.241135,0.203452 0.420449,0.458494 0.541016,0.763672 0.120568,0.305177 0.18164,0.613337 0.18164,0.925781 0,0.232515 -0.06909,0.457799 -0.210937,0.675781 -0.134753,0.217985 -0.325993,0.401552 -0.574219,0.546876 -0.248228,0.138055 -0.544341,0.205081 -0.884766,0.205078 -0.496454,0 -0.866287,-0.140451 -1.107421,-0.423828 -0.234043,-0.290645 -0.3496097,-0.686138 -0.3496098,-1.1875 0,-0.610355 0.1394198,-1.065371 0.4160158,-1.363282 0.283688,-0.29791 0.644268,-0.447265 1.083984,-0.447265 z"/>
 <path style="fill:#f4f4f7" d="m 25.099609,19 c -0.612766,0 -1.362549,0.08969 -1.847656,0.269531 -0.476596,0.179837 -0.877767,0.393441 -1.201172,0.638672 l 0.5625,0.734375 c 0.340426,-0.212534 0.684267,-0.388379 1.033203,-0.527344 0.348937,-0.138964 0.971227,-0.207031 1.464844,-0.207031 0.510639,0 0.915019,0.118412 1.212891,0.355469 0.297872,0.228883 0.447265,0.5554 0.447265,0.980469 10e-7,0.498637 -0.196401,0.898719 -0.58789,1.201171 -0.382979,0.302453 -1.149502,0.552735 -1.898438,0.552735 H 24 v 0.820312 h 0.271484 c 0.808511,0 1.434399,0.123909 1.876954,0.369141 0.451063,0.237057 0.677734,0.628097 0.677734,1.175781 0,0.53951 -0.182871,0.964764 -0.548828,1.275391 -0.357447,0.302452 -0.944698,0.453125 -1.761719,0.453125 -0.408511,0 -0.834791,-0.04839 -1.277344,-0.146485 C 22.795728,26.847222 22.382979,26.703636 22,26.515625 v 1.005859 c 0.374468,0.179837 0.765317,0.301793 1.173828,0.367188 C 23.582339,27.962241 24.025357,28 24.501953,28 25.310464,28 25.96983,27.888677 26.480469,27.667969 26.999618,27.44726 27.382098,27.142371 27.628906,26.75 27.875715,26.357629 28,25.903658 28,25.388672 28,24.80829 27.817129,24.338189 27.451172,23.978516 27.093725,23.618843 26.553482,23.39815 25.830078,23.316406 v -0.04883 c 0.570213,-0.114441 1.225981,-0.344176 1.566406,-0.6875 0.348937,-0.351499 0.523438,-0.8216 0.523438,-1.410156 0,-0.629428 -0.233087,-1.147921 -0.701172,-1.556641 C 26.759176,19.204566 26.0528,19 25.099609,19 Z"/>
 <path style="opacity:0.2;fill:#f4f4f7" d="M 6.9492188 4 C 5.8689187 4 5 4.8689187 5 5.9492188 L 5 6.9492188 C 5 5.8689187 5.8689187 5 6.9492188 5 L 42.050781 5 C 43.131081 5 44 5.8689187 44 6.9492188 L 44 5.9492188 C 44 4.8689187 43.131081 4 42.050781 4 L 6.9492188 4 z"/>
</svg>

<svg xmlns="http://www.w3.org/2000/svg" width="48" height="48" version="1"><rect style="opacity:.2" width="39" height="39" x="5" y="5" rx="1.95" ry="1.95"/><rect style="fill:#b2bfd9" width="39" height="39" x="5" y="4" rx="1.95" ry="1.95"/><path style="fill:#3587e9" d="M17 4v12H5v2h12v11H5v2h12v12h2V31h11v12h2V31h12v-2H32V18h12v-2H32V4h-2v12H19V4h-2z"/><path style="opacity:.1" d="M37.723 7c-.24 0-.55.024-.848.07-.299.046-.586.113-.78.205-.379.177-.716.397-1.011.655l.496.65a4.31 4.31 0 0 1 .842-.553c.274-.132.928-.199 1.3-.199.197 0 .376.029.536.086.16.057.303.144.426.258.245.22.367.548.367.982 0 .361-.066.69-.2.985a3.824 3.824 0 0 1-.601.904c-.26.31-.577.663-.95 1.06l-2.3 2.09V15h4.975v-.883H36.17v-.047l1.902-1.623c.387-.39.724-.761 1.012-1.115.288-.354.512-.711.674-1.072.161-.361.242-.748.242-1.16 0-.325-.05-.615-.152-.871a1.796 1.796 0 0 0-.46-.665 2.1 2.1 0 0 0-.72-.424h-.002a2.552 2.552 0 0 0-.443-.105 3.39 3.39 0 0 0-.5-.035zM25.1 20c-.613 0-1.363.09-1.848.27-.477.18-.878.393-1.201.638l.562.735c.34-.213.685-.389 1.033-.528.35-.139.972-.207 1.465-.207.511 0 .915.119 1.213.356.298.229.447.555.447.98 0 .499-.196.899-.587 1.201-.383.303-1.15.553-1.899.553H24v.82h.271c.809 0 1.435.124 1.877.37.452.237.678.628.678 1.175 0 .54-.183.965-.549 1.276-.357.302-.944.453-1.761.453-.409 0-.835-.049-1.278-.147a5.5 5.5 0 0 1-1.238-.43v1.006c.374.18.765.302 1.174.368a7.5 7.5 0 0 0 1.328.111c.808 0 1.468-.111 1.978-.332.52-.22.902-.526 1.149-.918s.371-.846.371-1.361c0-.58-.183-1.05-.549-1.41-.357-.36-.898-.58-1.62-.663v-.048c.57-.115 1.225-.345 1.565-.688.35-.351.524-.822.524-1.41 0-.63-.233-1.148-.701-1.557-.46-.408-1.166-.613-2.12-.613zM11.426 34c-.49 0-.92.106-1.29.316-.361.211-.639.512-.837.905-.199.392-.299.861-.299 1.406 0 .748.199 1.328.596 1.742.404.407.933.611 1.586.611.46 0 .836-.087 1.127-.261.29-.182.518-.396.681-.643h.063a6.643 6.643 0 0 1-.149 1.211 3 3 0 0 1-.414 1.002 2.04 2.04 0 0 1-.777.676c-.32.167-.726.25-1.223.25-.347 0-.66-.048-.937-.143v.819c.113.036.267.061.459.076.191.022.356.033.498.033.716 0 1.304-.131 1.758-.393.46-.261.814-.61 1.062-1.046a4.41 4.41 0 0 0 .52-1.471c.099-.545.15-1.097.15-1.656 0-.778-.113-1.417-.34-1.918-.227-.509-.536-.886-.926-1.133A2.346 2.346 0 0 0 11.426 34zm0 .807c.361 0 .663.1.904.304s.42.459.541.764a2.5 2.5 0 0 1 .182.926c0 .232-.07.458-.211.676a1.625 1.625 0 0 1-.574.546 1.795 1.795 0 0 1-.885.206c-.497 0-.866-.14-1.108-.424-.234-.291-.35-.686-.35-1.188 0-.61.14-1.065.417-1.363.283-.298.644-.447 1.084-.447z"/><path style="fill:#3f3f3f" d="M37.723 6c-.24 0-.55.024-.848.07-.299.046-.586.113-.78.205-.379.177-.716.397-1.011.655l.496.65a4.31 4.31 0 0 1 .842-.553c.274-.132.928-.199 1.3-.199.197 0 .376.029.536.086.16.057.303.144.426.258.245.22.367.548.367.982 0 .361-.066.69-.2.985a3.824 3.824 0 0 1-.601.904c-.26.31-.577.663-.95 1.06l-2.3 2.09V14h4.975v-.883H36.17v-.047l1.902-1.623c.387-.39.724-.761 1.012-1.115a4.83 4.83 0 0 0 .674-1.072c.161-.361.242-.748.242-1.16 0-.325-.05-.615-.152-.871a1.796 1.796 0 0 0-.46-.665 2.1 2.1 0 0 0-.72-.424h-.002a2.552 2.552 0 0 0-.443-.105 3.39 3.39 0 0 0-.5-.035zM11.426 33c-.49 0-.92.106-1.29.316-.361.211-.639.512-.837.905-.199.392-.299.861-.299 1.406 0 .748.199 1.328.596 1.742.404.407.933.611 1.586.611.46 0 .836-.087 1.127-.261.29-.182.518-.396.681-.643h.063a6.643 6.643 0 0 1-.149 1.211 3 3 0 0 1-.414 1.002 2.04 2.04 0 0 1-.777.676c-.32.167-.726.25-1.223.25-.347 0-.66-.048-.937-.143v.819c.113.036.267.061.459.076.191.022.356.033.498.033.716 0 1.304-.131 1.758-.393.46-.261.814-.61 1.062-1.046a4.41 4.41 0 0 0 .52-1.471c.099-.545.15-1.097.15-1.656 0-.778-.113-1.417-.34-1.918-.227-.509-.536-.886-.926-1.133A2.346 2.346 0 0 0 11.426 33zm0 .807c.361 0 .663.1.904.304s.42.459.541.764a2.5 2.5 0 0 1 .182.926c0 .232-.07.458-.211.676a1.625 1.625 0 0 1-.574.546 1.795 1.795 0 0 1-.885.206c-.497 0-.866-.14-1.108-.424-.234-.291-.35-.686-.35-1.188 0-.61.14-1.065.417-1.363.283-.298.644-.447 1.084-.447z"/><path style="fill:#f4f4f7" d="M25.1 19c-.613 0-1.363.09-1.848.27-.477.18-.878.393-1.201.638l.562.735c.34-.213.685-.389 1.033-.528.35-.139.972-.207 1.465-.207.511 0 .915.119 1.213.356.298.229.447.555.447.98 0 .499-.196.899-.587 1.201-.383.303-1.15.553-1.899.553H24v.82h.271c.809 0 1.435.124 1.877.37.452.237.678.628.678 1.175 0 .54-.183.965-.549 1.276-.357.302-.944.453-1.761.453-.409 0-.835-.049-1.278-.147a5.5 5.5 0 0 1-1.238-.43v1.006c.374.18.765.302 1.174.368a7.5 7.5 0 0 0 1.328.111c.808 0 1.468-.111 1.978-.332.52-.22.902-.526 1.149-.918s.371-.846.371-1.361c0-.58-.183-1.05-.549-1.41-.357-.36-.898-.58-1.62-.663v-.048c.57-.115 1.225-.345 1.565-.688.35-.351.524-.822.524-1.41 0-.63-.233-1.148-.701-1.557-.46-.408-1.166-.613-2.12-.613z"/><path style="opacity:.2;fill:#f4f4f7" d="M6.95 4C5.868 4 5 4.869 5 5.95v1C5 5.868 5.869 5 6.95 5h35.1C43.132 5 44 5.869 44 6.95v-1C44 4.868 43.131 4 42.05 4H6.95z"/></svg>
